svgs/sharp-duotone-light/chart-line.svg

<svg xmlns="http://www.w3.org/2000/svg" viewBox="0 0 512 512"><!--! Font Awesome Pro 7.1.0 by @fontawesome - https://fontawesome.com License - https://fontawesome.com/license (Commercial License) Copyright 2025 Fonticons, Inc. --><path opacity=".4" fill="currentColor" d="M32 361.4c19.1-19.1 38.2-38.2 57.4-57.4l22.6 22.6 11.3-11.3 100.7-100.7 84.7 84.7 11.3 11.3 11.3-11.3 144-144c3.8-3.8 7.5-7.5 11.4-11.3l0 304-454.7 0 0-86.6z"/><path fill="currentColor" d="M32 48l0-16-32 0 0 448 512 0 0-32-480 0 0-400zM475.3 155.3l11.3-11.3-22.6-22.6-11.3 11.3-132.7 132.7-84.7-84.7-11.3-11.3-11.3 11.3-112 112-11.3 11.3 22.6 22.6 11.3-11.3 100.7-100.7 84.7 84.7 11.3 11.3 11.3-11.3 144-144z"/></svg>

<svg xmlns="http://www.w3.org/2000/svg" viewBox="0 0 512 512"><!--! Font Awesome Pro 6.7.2 by @fontawesome - https://fontawesome.com License - https://fontawesome.com/license (Commercial License) Copyright 2024 Fonticons, Inc. --><defs><style>.fa-secondary{opacity:.4}</style></defs><path class="fa-secondary" d="M32 361.4c19.1-19.1 38.2-38.2 57.4-57.4L112 326.6l11.3-11.3L224 214.6l84.7 84.7L320 310.6l11.3-11.3 144-144c3.8-3.8 7.5-7.5 11.4-11.3l0 304L32 448l0-86.6z"/><path class="fa-primary" d="M32 48l0-16L0 32 0 48 0 464l0 16 16 0 480 0 16 0 0-32-16 0L32 448 32 48zM475.3 155.3L486.6 144 464 121.4l-11.3 11.3L320 265.4l-84.7-84.7L224 169.4l-11.3 11.3-112 112L89.4 304 112 326.6l11.3-11.3L224 214.6l84.7 84.7L320 310.6l11.3-11.3 144-144z"/></svg>
